build/Karasa-Jaga/scalable/emotes/face-angel-symbolic.svg

<svg height="16" width="16" xmlns="http://www.w3.org/2000/svg"><g fill="#bebebe"><path d="m2.03125 3.9375c-.7953961 1.1621411-1.28125 2.5479008-1.28125 4.0625 0 3.997042 3.2529578 7.25 7.25 7.25 3.997042 0 7.25-3.252958 7.25-7.25 0-1.5145992-.485854-2.9003589-1.28125-4.0625-.248049.191452-.490057.3795133-.75.5-.846522.3923493-1.867433.59375-2.96875.59375h-4.5c-1.1012999 0-2.1222213-.2013744-2.96875-.59375-.2599488-.1204854-.5019525-.3085478-.75-.5zm4.4375 1.15625c.3520298 0 .625.4523975.625 1 0 .1711258-.013443.3282582-.0625.46875-.087595.3498906-.3065837.59375-.5625.59375-.2559171 0-.4749049-.2438594-.5625-.59375-.049065-.1404918-.09375-.2976242-.09375-.46875 0-.5476025.3042194-1 .65625-1zm3.0625 0c.3520298 0 .65625.4523975.65625 1 0 .1711258-.04469.3282582-.09375.46875-.0876.3498906-.3065837.59375-.5625.59375-.2559171 0-.4749048-.2438594-.5625-.59375-.0490613-.1404918-.0625-.2976242-.0625-.46875 0-.5476025.2729694-1 .625-1zm-5.75 3.1875c.2128055 0 .40625.1621944.40625.375 0 .080851-.019944.1567821-.0625.21875.4975503.5376091 1.1165737.9179277 1.78125 1.1875 1.9781576.778986 4.447058.42165 5.96875-1.1875-.04997-.064986-.09375-.1304309-.09375-.21875 0-.2128056.162194-.375.375-.375.212805 0 .40625.1621944.40625.375 0 .2128058-.193445.375-.40625.375-.01845 0-.01349.00251-.03125 0-.543021.8852544-1.383584 1.546096-2.3125 1.90625-2.0758672.842512-4.7057638.117366-5.9375-1.90625-.026313.00567-.065743 0-.09375 0-.2128046 0-.375-.1621944-.375-.375 0-.2128057.1621954-.375.375-.375z"/><path d="m5.7500002-.07176902c-.9586199 0-1.8265999.18789-2.4999999.5-.67336.31211-1.25.79502002-1.25 1.50000002s.57664 1.1879 1.25 1.5c.67336.31211 1.5414.5 2.4999999.5h4.4999998c.95862 0 1.8266-.18789 2.5-.5.67336-.31211 1.25-.79502 1.25-1.5s-.57664-1.18790002-1.25-1.50000002c-.67336-.31211-1.5414-.5-2.5-.5h-4.4999998zm0 1h4.4999998c.83424 0 1.5972.17611002 2.0938.40625002.5.23.66.46.66.59 0 .12602-.15972.36361-.65625.59375-.49.23-1.26.41-2.09.41h-4.4999997c-.8342401 0-1.5972-.17611-2.0938-.40625-.5-.23-.66-.46-.66-.59 0-.12602.15972-.36361.65625-.59375.49-.23 1.2599999-.41000002 2.0899999-.41000002z"/></g></svg>

<?xml version="1.0" encoding="UTF-8" standalone="no"?>
<!-- Created with Inkscape (http://www.inkscape.org/) -->

<svg
   xmlns:dc="http://purl.org/dc/elements/1.1/"
   xmlns:cc="http://creativecommons.org/ns#"
   xmlns:rdf="http://www.w3.org/1999/02/22-rdf-syntax-ns#"
   xmlns:svg="http://www.w3.org/2000/svg"
   xmlns="http://www.w3.org/2000/svg"
   xmlns:xlink="http://www.w3.org/1999/xlink"
   xmlns:sodipodi="http://sodipodi.sourceforge.net/DTD/sodipodi-0.dtd"
   xmlns:inkscape="http://www.inkscape.org/namespaces/inkscape"
   width="16px"
   height="16px"
   id="svg17273"
   version="1.1"
   inkscape:version="0.48.3.1 r9886"
   sodipodi:docname="face-angel-symbolic.svg">
  <defs
     id="defs17275">
    <linearGradient
       gradientTransform="translate(0,-1036.3622)"
       y2="1052.3365"
       x2="6.2342343"
       y1="1036.4342"
       x1="6.2342343"
       gradientUnits="userSpaceOnUse"
       id="linearGradient3804"
       xlink:href="#linearGradient3779"
       inkscape:collect="always" />
    <linearGradient
       gradientUnits="userSpaceOnUse"
       y2="1052.3365"
       x2="6.2342343"
       y1="1036.4342"
       x1="6.2342343"
       id="linearGradient3812"
       xlink:href="#linearGradient3779"
       inkscape:collect="always" />
    <radialGradient
       gradientTransform="matrix(1.3020488e-5,1.7443014,-1.3603604,1.0154528e-5,1426.7246,1025.7323)"
       gradientUnits="userSpaceOnUse"
       r="5"
       fy="1045.0559"
       fx="11.072059"
       cy="1045.0559"
       cx="11.072059"
       id="radialGradient3796"
       xlink:href="#linearGradient3790"
       inkscape:collect="always" />
    <linearGradient
       gradientUnits="userSpaceOnUse"
       y2="7.984375"
       x2="14.8125"
       y1="7.984375"
       x1="1.1875"
       id="linearGradient3806"
       xlink:href="#linearGradient3800"
       inkscape:collect="always" />
    <linearGradient
       gradientUnits="userSpaceOnUse"
       y2="1052.2942"
       x2="3.4594595"
       y1="1036.4342"
       x1="3.4594595"
       id="linearGradient3785"
       xlink:href="#linearGradient3779"
       inkscape:collect="always" />
    <radialGradient
       gradientTransform="matrix(1.4806489e-6,1.9101011,-1.3873874,1.0754581e-6,1450.2076,1024.0417)"
       gradientUnits="userSpaceOnUse"
       r="8"
       fy="1039.4613"
       fx="8.0720873"
       cy="1039.4613"
       cx="8.0720873"
       id="radialGradient3777"
       xlink:href="#linearGradient3771"
       inkscape:collect="always" />
    <linearGradient
       gradientTransform="translate(-4,27.000017)"
       gradientUnits="userSpaceOnUse"
       y2="1024.1722"
       x2="14.801802"
       y1="1010.4072"
       x1="14.801802"
       id="linearGradient4542"
       xlink:href="#linearGradient4536"
       inkscape:collect="always" />
    <linearGradient
       id="linearGradient3702-501-757">
      <stop
         offset="0"
         style="stop-color:#181818;stop-opacity:0"
         id="stop2895" />
      <stop
         offset="0.5"
         style="stop-color:#181818;stop-opacity:1"
         id="stop2897" />
      <stop
         offset="1"
         style="stop-color:#181818;stop-opacity:0"
         id="stop2899" />
    </linearGradient>
    <linearGradient
       y2="39.999443"
       x2="25.058096"
       y1="47.027729"
       x1="25.058096"
       gradientUnits="userSpaceOnUse"
       id="linearGradient3136"
       xlink:href="#linearGradient3702-501-757"
       inkscape:collect="always" />
    <linearGradient
       id="linearGradient3688-464-309">
      <stop
         offset="0"
         style="stop-color:#181818;stop-opacity:1"
         id="stop2889" />
      <stop
         offset="1"
         style="stop-color:#181818;stop-opacity:0"
         id="stop2891" />
    </linearGradient>
    <radialGradient
       r="2.5"
       fy="43.5"
       fx="4.9929786"
       cy="43.5"
       cx="4.9929786"
       gradientTransform="matrix(2.003784,0,0,1.4,-20.01187,-104.4)"
       gradientUnits="userSpaceOnUse"
       id="radialGradient3134"
       xlink:href="#linearGradient3688-464-309"
       inkscape:collect="always" />
    <linearGradient
       id="linearGradient3688-166-749">
      <stop
         offset="0"
         style="stop-color:#181818;stop-opacity:1"
         id="stop2883" />
      <stop
         offset="1"
         style="stop-color:#181818;stop-opacity:0"
         id="stop2885" />
    </linearGradient>
    <radialGradient
       r="2.5"
       fy="43.5"
       fx="4.9929786"
       cy="43.5"
       cx="4.9929786"
       gradientTransform="matrix(2.003784,0,0,1.4,27.98813,-17.4)"
       gradientUnits="userSpaceOnUse"
       id="radialGradient3132"
       xlink:href="#linearGradient3688-166-749"
       inkscape:collect="always" />
    <linearGradient
       id="linearGradient4536">
      <stop
         id="stop4538"
         offset="0"
         style="stop-color:#ffffff;stop-opacity:1;" />
      <stop
         style="stop-color:#ffffff;stop-opacity:0.15686275;"
         offset="0.08246523"
         id="stop4546" />
      <stop
         style="stop-color:#ffffff;stop-opacity:0.23529412;"
         offset="0.936414"
         id="stop4544" />
      <stop
         id="stop4540"
         offset="1"
         style="stop-color:#ffffff;stop-opacity:0.39215687;" />
    </linearGradient>
    <linearGradient
       id="linearGradient3771">
      <stop
         id="stop3773"
         offset="0"
         style="stop-color:#ffffff;stop-opacity:1;" />
      <stop
         id="stop3775"
         offset="1"
         style="stop-color:#e6e6e6;stop-opacity:1;" />
    </linearGradient>
    <linearGradient
       id="linearGradient3779">
      <stop
         id="stop3781"
         offset="0"
         style="stop-color:#828282;stop-opacity:1;" />
      <stop
         id="stop3783"
         offset="1"
         style="stop-color:#505050;stop-opacity:1;" />
    </linearGradient>
    <linearGradient
       id="linearGradient3800"
       inkscape:collect="always">
      <stop
         id="stop3802"
         offset="0"
         style="stop-color:#000000;stop-opacity:0;" />
      <stop
         style="stop-color:#000000;stop-opacity:1;"
         offset="0.5"
         id="stop3808" />
      <stop
         id="stop3804"
         offset="1"
         style="stop-color:#000000;stop-opacity:0;" />
    </linearGradient>
    <linearGradient
       id="linearGradient3790">
      <stop
         id="stop3792"
         offset="0"
         style="stop-color:#93d0e9;stop-opacity:1;" />
      <stop
         id="stop3794"
         offset="1"
         style="stop-color:#3372b1;stop-opacity:1;" />
    </linearGradient>
  </defs>
  <sodipodi:namedview
     id="base"
     pagecolor="#ffffff"
     bordercolor="#666666"
     borderopacity="1.0"
     inkscape:pageopacity="0.0"
     inkscape:pageshadow="2"
     inkscape:zoom="16"
     inkscape:cx="12.125605"
     inkscape:cy="8.6141099"
     inkscape:current-layer="layer1"
     showgrid="true"
     inkscape:grid-bbox="true"
     inkscape:document-units="px"
     inkscape:window-width="1366"
     inkscape:window-height="696"
     inkscape:window-x="0"
     inkscape:window-y="0"
     inkscape:window-maximized="1"
     showguides="true"
     inkscape:guide-bbox="true" />
  <metadata
     id="metadata17278">
    <rdf:RDF>
      <cc:Work
         rdf:about="">
        <dc:format>image/svg+xml</dc:format>
        <dc:type
           rdf:resource="http://purl.org/dc/dcmitype/StillImage" />
        <dc:title></dc:title>
      </cc:Work>
    </rdf:RDF>
  </metadata>
  <g
     id="layer1"
     inkscape:label="Layer 1"
     inkscape:groupmode="layer">
    <g
       id="g25796">
      <path
         id="path3276"
         d="M 2.03125 3.9375 C 1.2358539 5.0996411 0.75 6.4854008 0.75 8 C 0.75 11.997042 4.0029578 15.25 8 15.25 C 11.997042 15.25 15.25 11.997042 15.25 8 C 15.25 6.4854008 14.764146 5.0996411 13.96875 3.9375 C 13.720701 4.128952 13.478693 4.3170133 13.21875 4.4375 C 12.372228 4.8298493 11.351317 5.03125 10.25 5.03125 L 5.75 5.03125 C 4.6487001 5.03125 3.6277787 4.8298756 2.78125 4.4375 C 2.5213012 4.3170146 2.2792975 4.1289522 2.03125 3.9375 z M 6.46875 5.09375 C 6.8207798 5.09375 7.09375 5.5461475 7.09375 6.09375 C 7.09375 6.2648758 7.080307 6.4220082 7.03125 6.5625 C 6.943655 6.9123906 6.7246663 7.15625 6.46875 7.15625 C 6.2128329 7.15625 5.9938451 6.9123906 5.90625 6.5625 C 5.857185 6.4220082 5.8125 6.2648758 5.8125 6.09375 C 5.8125 5.5461475 6.1167194 5.09375 6.46875 5.09375 z M 9.53125 5.09375 C 9.8832798 5.09375 10.1875 5.5461475 10.1875 6.09375 C 10.1875 6.2648758 10.14281 6.4220082 10.09375 6.5625 C 10.00615 6.9123906 9.7871663 7.15625 9.53125 7.15625 C 9.2753329 7.15625 9.0563452 6.9123906 8.96875 6.5625 C 8.9196887 6.4220082 8.90625 6.2648758 8.90625 6.09375 C 8.90625 5.5461475 9.1792194 5.09375 9.53125 5.09375 z M 3.78125 8.28125 C 3.9940555 8.28125 4.1875 8.4434444 4.1875 8.65625 C 4.1875 8.737101 4.167556 8.8130321 4.125 8.875 C 4.6225503 9.4126091 5.2415737 9.7929277 5.90625 10.0625 C 7.8844076 10.841486 10.353308 10.48415 11.875 8.875 C 11.82503 8.810014 11.78125 8.7445691 11.78125 8.65625 C 11.78125 8.4434444 11.943444 8.28125 12.15625 8.28125 C 12.369055 8.28125 12.5625 8.4434444 12.5625 8.65625 C 12.5625 8.8690558 12.369055 9.03125 12.15625 9.03125 C 12.1378 9.03125 12.14276 9.03376 12.125 9.03125 C 11.581979 9.9165044 10.741416 10.577346 9.8125 10.9375 C 7.7366328 11.780012 5.1067362 11.054866 3.875 9.03125 C 3.848687 9.03692 3.809257 9.03125 3.78125 9.03125 C 3.5684454 9.03125 3.40625 8.8690556 3.40625 8.65625 C 3.40625 8.4434443 3.5684454 8.28125 3.78125 8.28125 z "
         style="fill:#bebebe;fill-opacity:1;stroke:none" />
      <path
         d="m 5.7500002,-0.07176902 c -0.9586199,0 -1.8265999,0.18789 -2.4999999,0.5 -0.67336,0.31211 -1.25,0.79502002 -1.25,1.50000002 0,0.70498 0.57664,1.1879 1.25,1.5 0.67336,0.31211 1.5414,0.5 2.4999999,0.5 H 10.25 c 0.95862,0 1.8266,-0.18789 2.5,-0.5 0.67336,-0.31211 1.25,-0.79502 1.25,-1.5 0,-0.70498 -0.57664,-1.18790002 -1.25,-1.50000002 -0.67336,-0.31211 -1.5414,-0.5 -2.5,-0.5 H 5.7500002 z m 0,1 H 10.25 c 0.83424,0 1.5972,0.17611002 2.0938,0.40625002 0.5,0.23 0.66,0.46 0.66,0.59 0,0.12602 -0.15972,0.36361 -0.65625,0.59375 -0.49,0.23 -1.26,0.41 -2.09,0.41 H 5.7575503 c -0.8342401,0 -1.5972,-0.17611 -2.0938,-0.40625 -0.5,-0.23 -0.66,-0.46 -0.66,-0.59 0,-0.12602 0.15972,-0.36361 0.65625,-0.59375 0.49,-0.23 1.2599999,-0.41000002 2.0899999,-0.41000002 z"
         style="text-indent:0;text-transform:none;block-progression:tb;color:#000000;fill:#bebebe;fill-opacity:1"
         id="rect86760"
         inkscape:connector-curvature="0" />
    </g>
  </g>
</svg>
